Adwaita++-Dark/actions/16/taxes-finances.svg

<svg height="16" viewBox="0 0 16 16" width="16" xmlns="http://www.w3.org/2000/svg">
  <path d="m6 .0390625v1.1328125c-.9772.1418-1.8092906.3971281-2.4628906.7988281-1.0105.6149-1.515625 1.5580782-1.515625 2.8300781-.0046 2.1953 1.5575156 2.9186844 3.9785156 3.5839844v4.9921874c-1.1727-.099-2.2448531-.320687-3.3769531-.804687l-.6230469 1.357422c.5645.301 1.3272625.562156 2.2890625.785156.5442.122 1.1112375.199906 1.7109375.253906v1.070312h3v-1.117187c1.997-.285 3.979984-1.203453 3.958984-3.689453-.07-1.8287002-1.202984-2.5075626-3.958984-3.4765626v-4.953125c.9033.1207 2.001609.3722218 3.224609.9824218l.775391-1.5429687c-.551-.2955-1.831484-.7664062-2.646484-.9414063-.4340008-.0926-.886516-.1556187-1.353516-.1992187v-1.0625zm0 2.7597656v3.9980469c-1.227-.4344-2.3570186-1.0931063-2.3242188-2.1914062-.0595999-1.0413 1.0044188-1.5908407 2.3242188-1.8066407zm3 6.4511719c1.281.4486 2.319875 1.035453 2.296875 2.064453-.039 1.396-1.131875 1.882828-2.296875 2.048828z" fill="#e6ddff"/>
</svg>

<svg xmlns="http://www.w3.org/2000/svg" width="16" height="16" viewBox="0 0 16 16">
 <defs>
  <style id="current-color-scheme" type="text/css">
   .ColorScheme-Text { color:#E6DDFF; } .ColorScheme-Highlight { color:#4285f4; }
  </style>
 </defs>
 <path style="fill:currentColor" class="ColorScheme-Text" d="M 6 0.0390625 L 6 1.171875 C 5.0228 1.313675 4.1907094 1.5690031 3.5371094 1.9707031 C 2.5266094 2.5856031 2.0214844 3.5287813 2.0214844 4.8007812 C 2.0168844 6.9960812 3.579 7.7194656 6 8.3847656 L 6 13.376953 C 4.8273 13.277953 3.7551469 13.056266 2.6230469 12.572266 L 2 13.929688 C 2.5645 14.230688 3.3272625 14.491844 4.2890625 14.714844 C 4.8332625 14.836844 5.4003 14.91475 6 14.96875 L 6 16.039062 L 9 16.039062 L 9 14.921875 C 10.997 14.636875 12.979984 13.718422 12.958984 11.232422 C 12.888984 9.4037218 11.756 8.7248594 9 7.7558594 L 9 2.8027344 C 9.9033 2.9234344 11.001609 3.1749562 12.224609 3.7851562 L 13 2.2421875 C 12.449 1.9466875 11.168516 1.4757813 10.353516 1.3007812 C 9.9195152 1.2081812 9.467 1.1451625 9 1.1015625 L 9 0.0390625 L 6 0.0390625 z M 6 2.7988281 L 6 6.796875 C 4.773 6.362475 3.6429814 5.7037687 3.6757812 4.6054688 C 3.6161813 3.5641688 4.6802 3.0146281 6 2.7988281 z M 9 9.25 C 10.281 9.6986 11.319875 10.285453 11.296875 11.314453 C 11.257875 12.710453 10.165 13.197281 9 13.363281 L 9 9.25 z"/>
</svg>
